static/github.svg

<svg width="800" height="800" viewBox="0 0 800 800" fill="none" xmlns="http://www.w3.org/2000/svg">
<path d="M339.333 566.933C343.333 566.933 346.367 566.8 348.367 566.533C350.713 566.058 352.828 564.801 354.367 562.967C356.367 560.867 357.367 557.833 357.367 553.833L357.233 535.267C357.133 523.433 357.1 514.033 357.1 507.133L350.833 508.233C345.819 509.023 340.74 509.335 335.667 509.167C329.292 509.054 322.937 508.418 316.667 507.267C310.012 506.026 303.75 503.215 298.4 499.067C292.792 494.824 288.607 488.977 286.4 482.3L283.667 476C281.368 471.039 278.48 466.372 275.067 462.1C272.002 457.72 267.918 454.15 263.167 451.7L261.267 450.367C259.958 449.403 258.772 448.283 257.733 447.033C256.725 445.897 255.894 444.616 255.267 443.233C254.733 441.967 255.167 440.9 256.6 440.1C259.116 439.089 261.829 438.667 264.533 438.867L270 439.7C273.667 440.4 278.167 442.6 283.533 446.233C288.867 449.9 293.3 454.6 296.767 460.433C300.967 467.9 306 473.6 311.933 477.5C317.171 481.193 323.393 483.237 329.8 483.367C335.8 483.367 341 482.933 345.367 482.033C349.617 481.152 353.746 479.764 357.667 477.9C359.3 465.733 363.733 456.333 371 449.8C361.566 448.867 352.217 447.218 343.033 444.867C334.066 442.395 325.444 438.812 317.367 434.2C308.908 429.611 301.433 423.404 295.367 415.933C289.567 408.633 284.8 399.1 281.033 387.267C277.106 373.973 275.229 360.159 275.467 346.3C275.467 324.3 282.667 305.533 297.033 290.067C290.3 273.5 290.933 254.933 298.933 234.367C304.233 232.7 312.067 233.933 322.433 238.033C332.8 242.133 340.433 245.633 345.233 248.567C350.067 251.467 353.9 253.9 356.833 255.9C373.906 251.159 391.548 248.781 409.267 248.833C427.267 248.833 444.767 251.167 461.7 255.933L472.033 249.367C479.167 245.033 487.533 241 497.167 237.367C506.833 233.7 514.2 232.7 519.3 234.367C527.5 254.933 528.233 273.5 521.467 290.033C535.867 305.533 543.067 324.267 543.067 346.3C543.067 361.767 541.2 375.467 537.467 387.4C533.733 399.333 528.9 408.867 523 416.067C516.834 423.464 509.324 429.628 500.867 434.233C492.79 438.846 484.167 442.43 475.2 444.9C466.005 447.242 456.644 448.88 447.2 449.8C456.667 457.967 461.4 470.9 461.4 488.567V553.8C461.4 556.9 461.867 559.4 462.767 561.333C463.19 562.254 463.795 563.08 464.546 563.762C465.296 564.443 466.176 564.967 467.133 565.3C469.133 566 470.933 566.467 472.467 566.633C474.033 566.833 476.233 566.933 479.133 566.933H413.6H339.333Z" fill="#1C1C1C"/>
<path d="M200 133.333C182.319 133.333 165.362 140.357 152.86 152.86C140.357 165.362 133.333 182.319 133.333 200V600C133.333 617.681 140.357 634.638 152.86 647.14C165.362 659.643 182.319 666.667 200 666.667H600C617.681 666.667 634.638 659.643 647.14 647.14C659.643 634.638 666.667 617.681 666.667 600V200C666.667 182.319 659.643 165.362 647.14 152.86C634.638 140.357 617.681 133.333 600 133.333H200ZM200 66.6667H600C635.362 66.6667 669.276 80.7142 694.281 105.719C719.286 130.724 733.333 164.638 733.333 200V600C733.333 635.362 719.286 669.276 694.281 694.281C669.276 719.286 635.362 733.333 600 733.333H200C164.638 733.333 130.724 719.286 105.719 694.281C80.7142 669.276 66.6667 635.362 66.6667 600V200C66.6667 164.638 80.7142 130.724 105.719 105.719C130.724 80.7142 164.638 66.6667 200 66.6667Z" fill="#1C1C1C"/>
</svg>

<svg xmlns="http://www.w3.org/2000/svg" width="800" height="800" fill="none" viewBox="0 0 800 800"><path fill="currentColor" d="M339.33 566.93c4 0 7.04-.13 9.04-.4a10.6 10.6 0 0 0 6-3.56q3-3.14 3-9.14l-.14-18.56q-.14-17.78-.13-28.14l-6.27 1.1q-7.54 1.19-15.16.94-9.58-.18-19-1.9a42.5 42.5 0 0 1-18.27-8.2 34.7 34.7 0 0 1-12-16.77l-2.73-6.3a68 68 0 0 0-8.6-13.9 33 33 0 0 0-11.9-10.4l-1.9-1.33q-1.97-1.46-3.54-3.34-1.51-1.7-2.46-3.8c-.54-1.26-.1-2.33 1.33-3.13a18 18 0 0 1 7.93-1.23l5.47.83q5.5 1.07 13.53 6.53a45 45 0 0 1 13.24 14.2q6.28 11.21 15.16 17.07a32 32 0 0 0 17.87 5.87q9 0 15.57-1.34a54 54 0 0 0 12.3-4.13c1.63-12.17 6.06-21.57 13.33-28.1a187 187 0 0 1-27.97-4.93 112 112 0 0 1-25.66-10.67 73.5 73.5 0 0 1-22-18.27q-8.7-10.93-14.34-28.66c-3.92-13.3-5.8-27.11-5.56-40.97q.01-33.02 21.56-56.23-10.1-24.86 1.9-55.7 7.96-2.5 23.5 3.66c10.37 4.1 18 7.6 22.8 10.54a243 243 0 0 1 11.6 7.33 194 194 0 0 1 52.44-7.07c18 0 35.5 2.34 52.43 7.1l10.33-6.56c7.14-4.34 15.5-8.37 25.14-12q14.49-5.5 22.13-3 12.3 30.85 2.17 55.66 21.6 23.24 21.6 56.27 0 23.2-5.6 41.1-5.62 17.88-14.47 28.67a76 76 0 0 1-22.13 18.16c-8.08 4.62-16.7 8.2-25.67 10.67a187 187 0 0 1-28 4.9q14.2 12.26 14.2 38.77v65.23q.01 4.64 1.37 7.53a7.5 7.5 0 0 0 4.36 3.97q3.01 1.07 5.34 1.33 2.33.3 6.66.3h-139.8"/><path fill="currentColor" d="M200 133.33A66.66 66.66 0 0 0 133.33 200v400A66.66 66.66 0 0 0 200 666.67h400A66.66 66.66 0 0 0 666.67 600V200A66.66 66.66 0 0 0 600 133.33zm0-66.66h400A133.33 133.33 0 0 1 733.33 200v400A133.33 133.33 0 0 1 600 733.33H200A133.33 133.33 0 0 1 66.67 600V200A133.33 133.33 0 0 1 200 66.67"/></svg>
